Newaita/actions/16/dialog-fill-and-stroke.svg

<svg height="16" viewBox="0 0 16 16" width="16" xmlns="http://www.w3.org/2000/svg"><path d="m13.636719 2.089844c-.910157-.90625-2.367188-.90625-3.277344 0l-5.789063 5.789062c-2.996093 1.621094-.863281 2.996094-2.8125 5.601563-.175781.167969-.121093.460937.101563.558593 2.683594 1.152344 5.015625.464844 5.984375-2.886718l.234375-.234375 5.558594-5.554688c.90625-.90625.90625-2.367187 0-3.273437zm-.9375.933594c.390625.390624.390625 1.015624 0 1.402343l-.429688.429688-1.402343-1.402344.429687-.429687c.386719-.386719 1.015625-.386719 1.402344 0zm-2.300781.898437 1.40625 1.402344-.507813.507812-1.402344-1.40625zm-.972657.972656 1.402344 1.402344-3.683594 3.6875-1.40625-1.402344zm-3.863281 5.734375c.703125.703125-.289062 2.628906-1.929688 2.394532.9375-1.402344.527344-3.796876 1.929688-2.394532zm0 0" fill="#424242"/></svg>

<?xml version="1.0" encoding="UTF-8"?>
<svg xmlns="http://www.w3.org/2000/svg" xmlns:xlink="http://www.w3.org/1999/xlink" width="16px" height="16px" viewBox="0 0 16 16" version="1.1">
<g id="surface1">
<path style=" stroke:none;fill-rule:nonzero;fill:rgb(25.882354%,25.882354%,25.882354%);fill-opacity:1;" d="M 13.636719 2.089844 C 12.726562 1.183594 11.269531 1.183594 10.359375 2.089844 L 4.570312 7.878906 C 1.574219 9.5 3.707031 10.875 1.757812 13.480469 C 1.582031 13.648438 1.636719 13.941406 1.859375 14.039062 C 4.542969 15.191406 6.875 14.503906 7.84375 11.152344 L 8.078125 10.917969 L 13.636719 5.363281 C 14.542969 4.457031 14.542969 2.996094 13.636719 2.089844 Z M 12.699219 3.023438 C 13.089844 3.414062 13.089844 4.039062 12.699219 4.425781 L 12.269531 4.855469 L 10.867188 3.453125 L 11.296875 3.023438 C 11.683594 2.636719 12.3125 2.636719 12.699219 3.023438 Z M 10.398438 3.921875 L 11.804688 5.324219 L 11.296875 5.832031 L 9.894531 4.425781 Z M 9.425781 4.894531 L 10.828125 6.296875 L 7.144531 9.984375 L 5.738281 8.582031 Z M 5.5625 10.628906 C 6.265625 11.332031 5.273438 13.257812 3.632812 13.023438 C 4.570312 11.621094 4.160156 9.226562 5.5625 10.628906 Z M 5.5625 10.628906 "/>
</g>
</svg>
